X:1
T: Springbank House
C:J. Scott Skinner
R:Strathspey
Q: 128
K:A
M:4/4
L:1/16
|:A3B c3d ef3 e4|c'3b a3f ec3 c3e|fa3 e3a d3a c3a|B3^d f3a ge3 e4|
A3B c3d ef3 e4|c'3b a3f ec3 c3e|((3f2d2f2) a3f ea3 c'3a|((3g2f2e2) ((3d2c2B2) cA3 A4:|
|:f4 d3f e4 ce3|d4 E3d cA3 e4|f4 d3f ec3 a4|g4 f3B ((3e2f2e2) ((3d2c2B2) |
A3B c3d ef3 e4|c'3b a3f ec3 c3e|((3f2d2f2) a3f e3a c'3a|((3g2f2e2) ((3d2c2B2) cA3 A4:|
